images/1st.svg

<svg height="250" viewBox="0 0 250 250" width="250" xmlns="http://www.w3.org/2000/svg"><path d="m233.363281 53.429688h-14.480469v107.804687l-20.773437 41.542969h-161.777344v26.972656l-36.332031-52.960938v-155.460937l225-1.078125"/><path d="m6.566406 176.429688v-147.1875h43.523438l6.296875 18.613281h-29.050781v43.605469h29.050781v18.613281h-29.050781v97.46875m35.25-178.300781h14.570312v80.832031h-14.566406v-80.832031zm0 0" fill="#fff"/><path d="m832.375 520.4375 82.71875-149.59375h-82.71875" fill="none" stroke="#ffff28" stroke-miterlimit="10" stroke-width="1.01" transform="matrix(.125 0 0 .125 0 1.5)"/><path d="m104.046875 74.828125 14.476563 35.25h16.636718l-14.476562-37.316406 8.273437-24.90625v-18.613281h-41.457031v80.832031h16.546875v-62.21875m74.640625 0h-26.890625l22.75 35.25v26.96875h-39.386719l4.136719-18.613281h20.773437l-24.910156-35.335938v-26.882812h37.320313zm16.636719 0h-14.574219v-18.613281h35.25l6.296875 20.679687h-12.5v60.152344h-16.546875v-62.21875" fill="#fff"/><path d="m66.726562 139.117188-4.136718 10.339843h-29.046875v-31.109375h33.183593zm4.136719-20.769532h12.410157v31.109375h-12.410157zm43.523438 31.109375v-16.542969h6.296875v16.542969h14.476562v-31.109375h-33.183594v31.109375zm45.683593-16.542969h-8.273437v16.542969h-12.5v-31.109375h33.183594v31.109375h-12.410157zm37.320313 0h-8.273437v16.542969h-12.5v-31.109375h33.183593v31.109375h-12.410156zm-137.140625 20.859376h-26.4375v44.328124h33.1875v-22.210937l-10.074219-18.070313m26.347657 24.453126h10.976562l3.957031 15.828124h-27.34375v-44.328124h12.410157zm30.484374 0v-28.5h-11.78125v44.328124h32.375v-44.328124h-12.410156v28.5zm37.769532 0v-28.5h-11.875v44.328124h32.472656v-44.328124h-12.5v28.5zm38.042968-12.675782 6.652344-11.6875v-4.136718h13.578125v6.476562l-20.234375 37.851562h-12.949218v-44.328124h12.949218v15.824218zm0 0" fill="#f8981d"/><path d="m237.828125 31.507812h-3.566406v13.082032h-1.554688v-13.082032h-3.566406v-1.429687h8.6875z"/><path d="m248.445312 35.050781.1875-2.195312h-.085937l-.660156 2.050781-2.925781 6.304688h-.519532l-3.066406-6.304688-.640625-2.050781h-.085937l.292968 2.195312v9.539063h-1.492187v-14.511719h1.300781l3.5 7.128906.519531 1.703125h.039063l.5-1.722656 3.320312-7.109375h1.371094v14.511719h-1.554688z"/><path d="m104.046875 72.398438v-23.824219h7.554687m-64.570312 94.769531v-13.578125h7.554688m-8.273438 39.382813v13.578124h7.554688"/></svg>

<svg xmlns="http://www.w3.org/2000/svg" xmlns:xlink="http://www.w3.org/1999/xlink" width="250px" height="250px" viewBox="0 0 250 250" version="1.1">
<g id="surface1">
<path style=" stroke:none;fill-rule:nonzero;fill:rgb(0%,0%,0%);fill-opacity:1;" d="M 233.363281 53.429688 L 218.882812 53.429688 L 218.882812 161.234375 L 198.109375 202.777344 L 36.332031 202.777344 L 36.332031 229.75 L 0 176.789062 L 0 21.328125 L 225 20.25 "/>
<path style=" stroke:none;fill-rule:nonzero;fill:rgb(100%,100%,100%);fill-opacity:1;" d="M 6.566406 176.429688 L 6.566406 29.242188 L 50.089844 29.242188 L 56.386719 47.855469 L 27.335938 47.855469 L 27.335938 91.460938 L 56.386719 91.460938 L 56.386719 110.074219 L 27.335938 110.074219 L 27.335938 207.542969 M 62.585938 29.242188 L 77.15625 29.242188 L 77.15625 110.074219 L 62.589844 110.074219 L 62.589844 29.242188 Z M 62.585938 29.242188 "/>
<path style="fill:none;stroke-width:1.01;stroke-linecap:butt;stroke-linejoin:miter;stroke:rgb(100%,100%,15.686275%);stroke-opacity:1;stroke-miterlimit:10;" d="M 832.375 520.4375 L 915.09375 370.84375 L 832.375 370.84375 " transform="matrix(0.125,0,0,0.125,0,1.5)"/>
<path style=" stroke:none;fill-rule:nonzero;fill:rgb(100%,100%,100%);fill-opacity:1;" d="M 104.046875 74.828125 L 118.523438 110.078125 L 135.160156 110.078125 L 120.683594 72.761719 L 128.957031 47.855469 L 128.957031 29.242188 L 87.5 29.242188 L 87.5 110.074219 L 104.046875 110.074219 L 104.046875 47.855469 M 178.6875 47.855469 L 151.796875 47.855469 L 174.546875 83.105469 L 174.546875 110.074219 L 135.160156 110.074219 L 139.296875 91.460938 L 160.070312 91.460938 L 135.160156 56.125 L 135.160156 29.242188 L 172.480469 29.242188 Z M 195.324219 47.855469 L 180.75 47.855469 L 180.75 29.242188 L 216 29.242188 L 222.296875 49.921875 L 209.796875 49.921875 L 209.796875 110.074219 L 193.25 110.074219 L 193.25 47.855469 "/>
<path style=" stroke:none;fill-rule:nonzero;fill:rgb(97.254902%,59.607846%,11.372549%);fill-opacity:1;" d="M 66.726562 139.117188 L 62.589844 149.457031 L 33.542969 149.457031 L 33.542969 118.347656 L 66.726562 118.347656 Z M 70.863281 118.347656 L 83.273438 118.347656 L 83.273438 149.457031 L 70.863281 149.457031 Z M 114.386719 149.457031 L 114.386719 132.914062 L 120.683594 132.914062 L 120.683594 149.457031 L 135.160156 149.457031 L 135.160156 118.347656 L 101.976562 118.347656 L 101.976562 149.457031 Z M 160.070312 132.914062 L 151.796875 132.914062 L 151.796875 149.457031 L 139.296875 149.457031 L 139.296875 118.347656 L 172.480469 118.347656 L 172.480469 149.457031 L 160.070312 149.457031 Z M 197.390625 132.914062 L 189.117188 132.914062 L 189.117188 149.457031 L 176.617188 149.457031 L 176.617188 118.347656 L 209.800781 118.347656 L 209.800781 149.457031 L 197.390625 149.457031 Z M 60.25 153.773438 L 33.8125 153.773438 L 33.8125 198.101562 L 67 198.101562 L 67 175.890625 L 56.925781 157.820312 M 83.273438 182.273438 L 94.25 182.273438 L 98.207031 198.101562 L 70.863281 198.101562 L 70.863281 153.773438 L 83.273438 153.773438 Z M 113.757812 182.273438 L 113.757812 153.773438 L 101.976562 153.773438 L 101.976562 198.101562 L 134.351562 198.101562 L 134.351562 153.773438 L 121.941406 153.773438 L 121.941406 182.273438 Z M 151.527344 182.273438 L 151.527344 153.773438 L 139.652344 153.773438 L 139.652344 198.101562 L 172.125 198.101562 L 172.125 153.773438 L 159.625 153.773438 L 159.625 182.273438 Z M 189.570312 169.597656 L 196.222656 157.910156 L 196.222656 153.773438 L 209.800781 153.773438 L 209.800781 160.25 L 189.566406 198.101562 L 176.617188 198.101562 L 176.617188 153.773438 L 189.566406 153.773438 L 189.566406 169.597656 Z M 189.570312 169.597656 "/>
<path style=" stroke:none;fill-rule:nonzero;fill:rgb(0%,0%,0%);fill-opacity:1;" d="M 237.828125 31.507812 L 234.261719 31.507812 L 234.261719 44.589844 L 232.707031 44.589844 L 232.707031 31.507812 L 229.140625 31.507812 L 229.140625 30.078125 L 237.828125 30.078125 L 237.828125 31.507812 "/>
<path style=" stroke:none;fill-rule:nonzero;fill:rgb(0%,0%,0%);fill-opacity:1;" d="M 248.445312 35.050781 L 248.632812 32.855469 L 248.546875 32.855469 L 247.886719 34.90625 L 244.960938 41.210938 L 244.441406 41.210938 L 241.375 34.90625 L 240.734375 32.855469 L 240.648438 32.855469 L 240.941406 35.050781 L 240.941406 44.589844 L 239.449219 44.589844 L 239.449219 30.078125 L 240.75 30.078125 L 244.25 37.207031 L 244.769531 38.910156 L 244.808594 38.910156 L 245.308594 37.1875 L 248.628906 30.078125 L 250 30.078125 L 250 44.589844 L 248.445312 44.589844 L 248.445312 35.050781 "/>
<path style=" stroke:none;fill-rule:nonzero;fill:rgb(0%,0%,0%);fill-opacity:1;" d="M 104.046875 72.398438 L 104.046875 48.574219 L 111.601562 48.574219 M 47.03125 143.34375 L 47.03125 129.765625 L 54.585938 129.765625 M 46.3125 169.148438 L 46.3125 182.726562 L 53.867188 182.726562 "/>
</g>
</svg>
